src/assets/LinkedInIcon.svg

<svg width="17" height="18" viewBox="0 0 17 18" fill="none" xmlns="http://www.w3.org/2000/svg">
<path d="M0.329032 17.5484H3.61936V5.37419H0.329032V17.5484ZM1.97419 0C0.877419 0 0 0.877419 0 1.97419C0 3.07097 0.877419 3.94839 1.97419 3.94839C3.07097 3.94839 3.94839 3.07097 3.94839 1.97419C3.94839 0.877419 3.07097 0 1.97419 0ZM9.2129 7.23871V5.37419H5.92258V17.5484H9.2129V11.2968C9.2129 7.7871 13.7097 7.56774 13.7097 11.2968V17.5484H17V10.0903C17 4.16774 10.7484 4.3871 9.2129 7.23871Z" fill="#172E53"/>
</svg>

<svg xmlns="http://www.w3.org/2000/svg" width="17" height="18" fill="none" viewBox="0 0 17 18"><path fill="#172e53" d="M.329 17.548h3.29V5.374H.33zM1.974 0A1.966 1.966 0 0 0 0 1.974c0 1.097.877 1.974 1.974 1.974a1.966 1.966 0 0 0 1.974-1.974A1.966 1.966 0 0 0 1.974 0m7.239 7.239V5.374h-3.29v12.174h3.29v-6.251c0-3.51 4.497-3.73 4.497 0v6.251H17V10.09c0-5.922-6.252-5.703-7.787-2.851"/></svg>
